X: 11068
T: Duchess Of Gordon's New, The
R: strathspey
M: 4/4
K: Fmajor
C/E/|F>G F<C A,<C C>F|D<G G>F E<G Gc/B/|A<F F>C D>F B>d|1 {d}cB/A/ {c}BA/G/ A>F F>C:|
[2 {d}cB/A/ {c}BA/G/ A>F F>c||f>a g>a f>g e>c|d<g g>f e<g g>b|a<f e<f d<f c<A|
B/c/d c>B A<F F>c|f>a g>a (3fgf (3edc|d<g g>f e<g g>b|a/g/f g/f/e f/e/d e/d/c|
d<g c<e f<F F||

